docs/images/icons/atib.svg

<svg width="499" height="185" viewBox="0 0 499 185" fill="none" xmlns="http://www.w3.org/2000/svg">
<g clip-path="url(#clip0_87_85)">
<path d="M122.661 32.3958V53.9514H164.816V161.565H193.531V53.9514H236.219V32.3958H122.661Z" fill="white"/>
<path opacity="0.4" d="M179.381 32.3958V161.565H164.816V53.9514H122.661V32.3958H179.381Z" fill="white"/>
<path d="M91.5181 64.8298L82.5187 43.1096L78.611 33.4014L78.1966 32.3593H51.5535L47.9419 41.3545L15.0821 123.408L-0.193203 161.638H29.943L39.7714 134.981L64.9342 126.59L65.2303 126.48L90.0971 134.981L99.1558 161.419L131.423 161.638L91.5181 64.8298ZM64.9935 106.405L64.8158 106.35L47.5275 113.426L54.8691 92.9672L64.875 65.104L64.9935 65.3783L70.6181 80.9553L82.4002 113.481L64.9935 106.405Z" fill="white"/>
<path d="M365.053 32.3939V161.563H336.278V75.7793L280.387 161.563H251.671V32.5036L265.703 43.7476L265.999 43.967L280.387 32.1745V118.342L330.357 41.444L335.804 33.1069L336.278 32.3939H365.053Z" fill="white"/>
<path d="M494.479 116.644C494.42 115.437 494.302 114.285 494.124 113.133C493.295 107.648 491.4 102.767 488.381 98.4339C486.545 95.856 484.414 93.4426 481.75 91.2487C481.276 90.8099 480.743 90.4259 480.151 89.9871C473.224 84.6668 464.521 81.2662 454.041 79.7852C450.311 79.2368 446.344 78.9625 442.2 78.9625C441.844 78.9625 441.489 78.9625 441.075 78.9625H418.635V53.9514H482.46L471.152 43.6947L482.283 32.3958H389.683V161.62H442.2C449.008 161.565 455.284 160.797 460.909 159.371C461.975 159.097 463.04 158.822 464.106 158.439C470.204 156.519 475.592 153.721 480.21 150.047C489.743 142.423 494.538 132.385 494.538 119.825C494.598 118.728 494.538 117.686 494.479 116.644ZM459.192 134.579C454.929 138.199 449.304 140.064 442.259 140.174C442.081 140.174 441.844 140.174 441.667 140.174H418.754V100.408H442.318C449.6 100.518 455.343 102.273 459.488 105.729C463.692 109.129 465.764 113.737 465.764 119.606C465.764 125.858 463.573 130.85 459.192 134.579Z" fill="white"/>
<path d="M479.23 109.341V116.307H486.749V109.341H479.23Z" fill="#FBBF0D"/>
<path d="M471.815 116.194V123.16H479.334V116.194H471.815Z" fill="#FBBF0D"/>
<path d="M479.218 123.12V130.085H486.738V123.12H479.218Z" fill="#FBBF0D"/>
<path d="M338.201 47.5791H345.72V40.6133H338.201V47.5791Z" fill="#3F94FF"/>
<path d="M345.617 54.4453H353.136V47.4795H345.617V54.4453Z" fill="#3F94FF"/>
<path d="M353.088 47.5791H360.607V40.6133H353.088V47.5791Z" fill="#3F94FF"/>
<path d="M190.634 146.477H183.114V153.442H190.634V146.477Z" fill="#FF2C60"/>
<path d="M183.167 139.569H175.647V146.535H183.167V139.569Z" fill="#FF2C60"/>
<path d="M175.769 146.477H168.25V153.442H175.769V146.477Z" fill="#FF2C60"/>
<path d="M61.4452 40.5675H53.926V47.5333H61.4452V40.5675Z" fill="#7053FF"/>
<path d="M61.3393 54.4028H68.8586V47.437H61.3393V54.4028Z" fill="#7053FF"/>
<path d="M68.7523 47.5378H76.2716V40.5719H68.7523V47.5378Z" fill="#7053FF"/>
<path opacity="0.4" d="M405.669 32.3958H389.683V161.62H405.669V32.3958Z" fill="white"/>
<path opacity="0.4" d="M265.703 43.7457V161.561H251.671V32.5016L265.703 43.7457Z" fill="white"/>
</g>
<defs>
<clipPath id="clip0_87_85">
<rect width="499" height="185" fill="white"/>
</clipPath>
</defs>
</svg>

<svg width="499" height="185" fill="none" xmlns="http://www.w3.org/2000/svg"><g clip-path="url(#a)"><path d="M122.661 32.396V53.95h42.155v107.614h28.715V53.951h42.688V32.396H122.661Z" fill="#fff"/><path opacity=".4" d="M179.381 32.396v129.169h-14.565V53.951h-42.155V32.396h56.72Z" fill="#fff"/><path d="m91.518 64.83-9-21.72-3.907-9.709-.414-1.042H51.553l-3.611 8.995-32.86 82.054-15.275 38.23h30.136l9.828-26.657 25.163-8.391.296-.11 24.867 8.501 9.059 26.438 32.267.219L91.518 64.83Zm-26.525 41.575-.177-.055-17.288 7.076 7.341-20.459 10.006-27.863.118.274 5.625 15.577L82.4 113.481l-17.407-7.076Zm300.06-74.011v129.169h-28.775V75.779l-55.891 85.784h-28.716V32.503l14.032 11.245.296.219 14.388-11.792v86.167l49.97-76.898 5.447-8.337.474-.713h28.775Zm129.426 84.25a33.516 33.516 0 0 0-.355-3.511c-.829-5.485-2.724-10.366-5.743-14.7-1.836-2.577-3.967-4.99-6.631-7.184-.474-.44-1.007-.823-1.599-1.262-6.927-5.32-15.63-8.72-26.11-10.202-3.73-.548-7.697-.822-11.841-.822h-23.565V53.95h63.825l-11.308-10.256 11.131-11.3h-92.6V161.62H442.2c6.808-.055 13.084-.823 18.709-2.249 1.066-.274 2.131-.549 3.197-.932 6.098-1.92 11.486-4.718 16.104-8.392 9.533-7.624 14.328-17.662 14.328-30.222.06-1.097 0-2.139-.059-3.181Zm-35.287 17.935c-4.263 3.62-9.888 5.485-16.933 5.595h-23.505v-39.766h23.564c7.282.11 13.025 1.865 17.17 5.321 4.204 3.4 6.276 8.008 6.276 13.877 0 6.252-2.191 11.244-6.572 14.973Z" fill="#fff"/><path d="M479.23 109.341v6.966h7.519v-6.966h-7.519Z" fill="#FBBF0D"/><path d="M471.815 116.194v6.966h7.519v-6.966h-7.519Z" fill="#FBBF0D"/><path d="M479.218 123.12v6.965h7.52v-6.965h-7.52Z" fill="#FBBF0D"/><path d="M338.201 47.58h7.519v-6.967h-7.519v6.966Z" fill="#3F94FF"/><path d="M345.617 54.445h7.519V47.48h-7.519v6.965Z" fill="#3F94FF"/><path d="M353.088 47.58h7.519v-6.967h-7.519v6.966Z" fill="#3F94FF"/><path d="M190.634 146.477h-7.52v6.965h7.52v-6.965Z" fill="#FF2C60"/><path d="M183.167 139.569h-7.52v6.966h7.52v-6.966Z" fill="#FF2C60"/><path d="M175.769 146.477h-7.519v6.965h7.519v-6.965Z" fill="#FF2C60"/><path d="M61.445 40.568h-7.519v6.965h7.52v-6.965Z" fill="#7053FF"/><path d="M61.34 54.403h7.519v-6.966h-7.52v6.966Z" fill="#7053FF"/><path d="M68.752 47.538h7.52v-6.966h-7.52v6.966Z" fill="#7053FF"/><path opacity=".4" d="M405.669 32.396h-15.986V161.62h15.986V32.396Zm-139.966 11.35V161.56h-14.032V32.501l14.032 11.245Z" fill="#fff"/></g><defs><clipPath id="a"><path fill="#fff" d="M0 0h499v185H0z"/></clipPath></defs></svg>
